src/assets/icons/sax/IconFilter.svg

<svg width="20" height="20" viewBox="0 0 24 24" fill="none" xmlns="http://www.w3.org/2000/svg">
<path d="M5.40002 2.09998H18.6C19.7 2.09998 20.6 2.99998 20.6 4.09998V6.29998C20.6 7.09998 20.1 8.09998 19.6 8.59998L15.3 12.4C14.7 12.9 14.3 13.9 14.3 14.7V19C14.3 19.6 13.9 20.4 13.4 20.7L12 21.6C10.7 22.4 8.90002 21.5 8.90002 19.9V14.6C8.90002 13.9 8.50002 13 8.10002 12.5L4.30002 8.49998C3.80002 7.99998 3.40002 7.09998 3.40002 6.49998V4.19998C3.40002 2.99998 4.30002 2.09998 5.40002 2.09998Z" stroke="currentColor" stroke-width="1.5" stroke-miterlimit="10" stroke-linecap="round" stroke-linejoin="round"/>
<path d="M10.93 2.09998L6 9.99998" stroke="currentColor" stroke-width="1.5" stroke-miterlimit="10" stroke-linecap="round" stroke-linejoin="round"/>
</svg>

<svg xmlns="http://www.w3.org/2000/svg" width="20" height="20" fill="none" viewBox="0 0 24 24">
  <path stroke="currentcolor" stroke-linecap="round" stroke-linejoin="round" stroke-miterlimit="10" stroke-width="1.5" d="M5.4 2.1h13.2a2 2 0 0 1 2 2v2.2c0 .8-.5 1.8-1 2.3l-4.3 3.8c-.6.5-1 1.5-1 2.3V19c0 .6-.4 1.4-.9 1.7l-1.4.9c-1.3.8-3.1-.1-3.1-1.7v-5.3c0-.7-.4-1.6-.8-2.1l-3.8-4c-.5-.5-.9-1.4-.9-2V4.2c0-1.2.9-2.1 2-2.1m5.53 0L6 10"/>
</svg>
